mobile/24/svg/lightbulb-24.svg

<svg width="24" height="24" viewBox="0 0 24 24" fill="none" xmlns="http://www.w3.org/2000/svg">
<path fill-rule="evenodd" clip-rule="evenodd" d="M4.5 9.5C4.5 5.35775 7.85775 2 12 2C16.1422 2 19.5 5.35775 19.5 9.5C19.5 12.0675 18.2 14.3121 16.246 15.6598L15.6874 17.8301C15.5879 18.2168 15.2392 18.487 14.84 18.487H9.161C8.76176 18.487 8.41315 18.2168 8.31362 17.8301L7.755 15.6599C5.80007 14.3122 4.5 12.0676 4.5 9.5ZM12 3.75C8.82425 3.75 6.25 6.32425 6.25 9.5C6.25 11.5568 7.34137 13.352 8.98004 14.3709C9.17124 14.4898 9.30925 14.6778 9.36538 14.8959L9.83929 16.737H14.1617L14.6356 14.8959C14.6917 14.6779 14.8297 14.4899 15.0208 14.371C16.6586 13.3521 17.75 11.5568 17.75 9.5C17.75 6.32425 15.1758 3.75 12 3.75Z" fill="black"/>
<path fill-rule="evenodd" clip-rule="evenodd" d="M15.5 22H8.5V20.25H15.5V22Z" fill="black"/>
</svg>

<svg width="24" height="24" fill="none" xmlns="http://www.w3.org/2000/svg"><path fill-rule="evenodd" clip-rule="evenodd" d="M4.5 9.5a7.5 7.5 0 1 1 15 0c0 2.568-1.3 4.812-3.254 6.16l-.559 2.17a.875.875 0 0 1-.847.657H9.161c-.4 0-.748-.27-.847-.657l-.559-2.17C5.8 14.312 4.5 12.068 4.5 9.5zM12 3.75A5.75 5.75 0 0 0 6.25 9.5c0 2.057 1.091 3.852 2.73 4.87.191.12.33.308.385.526l.474 1.841h4.323l.474-1.841a.875.875 0 0 1 .385-.525c1.638-1.019 2.729-2.814 2.729-4.871A5.75 5.75 0 0 0 12 3.75zM15.5 22h-7v-1.75h7V22z" fill="#000"/></svg>
